app/style/icons/stats-disabled.svg

<svg xmlns="http://www.w3.org/2000/svg" viewBox="16252 1084 80 80"><defs><style>.a{fill:#1b3751;}.b{fill:#8997a5;}.c{fill:#132f4b;}.d{fill:#c4cbd2;}.e{fill:none;}</style></defs><g transform="translate(15565 850)"><g transform="translate(694.96 241.98)"><rect class="a" width="80" height="5" transform="translate(1.982 58.499) rotate(-45)"/><path class="b" d="M210,39.9V60.7l15.6-15.6A31.991,31.991,0,0,0,210,39.9Z" transform="translate(-175.96 -39.9)"/><path class="c" d="M100.56,192.2,78.2,214.56a31.144,31.144,0,0,0,3.54,3.54l21.18-21.18" transform="translate(-70.52 -161.74)"/><path class="d" d="M132.78,229.9,112,250.68a32.05,32.05,0,0,0,38.8-2.76Z" transform="translate(-97.56 -191.9)"/><path class="d" d="M69.84,64.7V39.9A32.05,32.05,0,0,0,45.06,89.48Z" transform="translate(-39.8 -39.9)"/><path class="b" d="M250.86,111.9,230.1,132.68l18.02,18.02a32.005,32.005,0,0,0,8.02-21.2v-.02A32.029,32.029,0,0,0,250.86,111.9Z" transform="translate(-192.04 -97.5)"/></g><rect class="e" width="80" height="80" transform="translate(687 234)"/></g></svg>

<svg viewBox="16252 1084 80 80" xmlns="http://www.w3.org/2000/svg"><path d="m0 0h80v5h-80z" fill="#1b3751" transform="matrix(.70710678 -.70710678 .70710678 .70710678 16261.942 1150.479)"/><path d="m210 39.9v20.8l15.6-15.6a31.991 31.991 0 0 0 -15.6-5.2z" fill="#8997a5" transform="translate(16084 1052.08)"/><path d="m100.56 192.2-22.36 22.36a31.144 31.144 0 0 0 3.54 3.54l21.18-21.18" fill="#132f4b" transform="translate(16189.44 930.24)"/><path d="m132.78 229.9-20.78 20.78a32.05 32.05 0 0 0 38.8-2.76z" fill="#c4cbd2" transform="translate(16162.4 900.08)"/><path d="m69.84 64.7v-24.8a32.05 32.05 0 0 0 -24.78 49.58z" fill="#c4cbd2" transform="translate(16220.16 1052.08)"/><path d="m250.86 111.9-20.76 20.78 18.02 18.02a32.005 32.005 0 0 0 8.02-21.2v-.02a32.029 32.029 0 0 0 -5.28-17.58z" fill="#8997a5" transform="translate(16067.92 994.48)"/><path d="m16252 1084h80v80h-80z" fill="none"/></svg>
